!!!OTL: Zdrowas od Angiola
**kern
*staff1
=--
*clefC1
*k[]
*met(c|)
*M2/2
1d
1d
=-
1g
1.a
2g
1f
=-
0e
=-
1g
1g
=-
2e
2f
2g
2a
=-
1g
1f
=-
0e
=-
0d
!!linebreak:original
=-
1a
1g
=-
1a
1cc
=-
0b
=-
0a
=-
0g
=-
0a
=-
1g
1f
=-
0e
=-
0d
=-=
*-
!!title: @{OTL}, @{GTL}, ed. @{ENC}
!!!pag:
!!!GTL: Hymnbook C
!!!EFL: 
!!!YEM: Creative Commons CC/BY/NC/SA 4.0
!!!ENC: Marcin Konik
!!!END: 2015-0m-dd
!!!EED: Marcin Konik
!!!EEV: 
!!!ONB: Encoded in vim by Marcin Konik
!!!CharacterEncoding: utf-8
!!!RDF**kern: l=long note in original notation
!!!RDF**kern: i=editorial accidental
!!muse2ps: z14jc180F
!!!COM: Anonim
!!!CDT: [?]
!!!TXO: Polish
!!!ODT: 
!!!GTL: Hymnbook C
!!!ARL: Opactwo św. Wojciecha, Staniątki 
!!!voices:	1
